X: 2228
T: Avenging And Bright
R: waltz
M: 3/4
K: Bminor
F>F|B2 (Bc)(dB)|c2f3e|d2B2B2|c2A2A2|
B2 (Bc) (dB)|c2 f3e|d2B2{c}B2|B4||
c>c|d2 (de) (fd)|c2A2F2|G2 (GB) (AG)|
F2D2A2|d2 (de) (fd)|c2A2F2|(GF) (Ed) (cB)|B4||

